static/img/kroki/9af2b790b0bec69ed3712d70d520e191.svg

<?xml version="1.0" encoding="us-ascii" standalone="no"?><svg xmlns="http://www.w3.org/2000/svg" xmlns:xlink="http://www.w3.org/1999/xlink" contentStyleType="text/css" height="535px" preserveAspectRatio="none" style="width:299px;height:535px;" version="1.1" viewBox="0 0 299 535" width="299px" zoomAndPan="magnify"><defs/><g><!--class aws_resource--><g id="elem_aws_resource"><rect codeLine="23" fill="#3D176E" height="39.7891" id="aws_resource" rx="2.5" ry="2.5" style="stroke:#000D19;stroke-width:0.5;" width="155" x="72" y="167.79"/><ellipse cx="87" cy="187.6845" fill="#ADD1B2" rx="11" ry="11" style="stroke:#181818;stroke-width:1.0;"/><path d="M89.9688,193.3252 Q89.3906,193.622 88.75,193.7627 Q88.1094,193.9189 87.4063,193.9189 Q84.9063,193.9189 83.5781,192.2783 Q82.2656,190.622 82.2656,187.497 Q82.2656,184.372 83.5781,182.7158 Q84.9063,181.0595 87.4063,181.0595 Q88.1094,181.0595 88.75,181.2158 Q89.4063,181.372 89.9688,181.6689 L89.9688,184.3877 Q89.3438,183.8095 88.75,183.5439 Q88.1563,183.2627 87.5313,183.2627 Q86.1875,183.2627 85.5,184.3408 Q84.8125,185.4033 84.8125,187.497 Q84.8125,189.5908 85.5,190.6689 Q86.1875,191.7314 87.5313,191.7314 Q88.1563,191.7314 88.75,191.4658 Q89.3438,191.1845 89.9688,190.6064 L89.9688,193.3252 Z " fill="#000000"/><text fill="#D9B8FF" font-family="Helvetica" font-size="17" lengthAdjust="spacing" textLength="113" x="106" y="193.5698">aws_resource</text></g><!--class aws_sagemaker_job--><g id="elem_aws_sagemaker_job"><rect codeLine="26" fill="#3D176E" height="39.7891" id="aws_sagemaker_job" rx="2.5" ry="2.5" style="stroke:#000D19;stroke-width:0.5;" width="210" x="44.5" y="328.58"/><ellipse cx="59.5" cy="348.4745" fill="#ADD1B2" rx="11" ry="11" style="stroke:#181818;stroke-width:1.0;"/><path d="M62.4688,354.1152 Q61.8906,354.412 61.25,354.5527 Q60.6094,354.7089 59.9063,354.7089 Q57.4063,354.7089 56.0781,353.0683 Q54.7656,351.412 54.7656,348.287 Q54.7656,345.162 56.0781,343.5058 Q57.4063,341.8495 59.9063,341.8495 Q60.6094,341.8495 61.25,342.0058 Q61.9063,342.162 62.4688,342.4589 L62.4688,345.1777 Q61.8438,344.5995 61.25,344.3339 Q60.6563,344.0527 60.0313,344.0527 Q58.6875,344.0527 58,345.1308 Q57.3125,346.1933 57.3125,348.287 Q57.3125,350.3808 58,351.4589 Q58.6875,352.5214 60.0313,352.5214 Q60.6563,352.5214 61.25,352.2558 Q61.8438,351.9745 62.4688,351.3964 L62.4688,354.1152 Z " fill="#000000"/><text fill="#D9B8FF" font-family="Helvetica" font-size="17" lengthAdjust="spacing" textLength="168" x="78.5" y="354.3598">aws_sagemaker_job</text></g><!--class aws_sagemaker_labeling_job--><g id="elem_aws_sagemaker_labeling_job"><rect codeLine="29" fill="#3D176E" height="39.7891" id="aws_sagemaker_labeling_job" rx="2.5" ry="2.5" style="stroke:#000D19;stroke-width:0.5;" width="285" x="7" y="489.37"/><ellipse cx="22" cy="509.2645" fill="#ADD1B2" rx="11" ry="11" style="stroke:#181818;stroke-width:1.0;"/><path d="M24.9688,514.9052 Q24.3906,515.202 23.75,515.3427 Q23.1094,515.4989 22.4063,515.4989 Q19.9063,515.4989 18.5781,513.8583 Q17.2656,512.202 17.2656,509.077 Q17.2656,505.952 18.5781,504.2958 Q19.9063,502.6395 22.4063,502.6395 Q23.1094,502.6395 23.75,502.7958 Q24.4063,502.952 24.9688,503.2489 L24.9688,505.9677 Q24.3438,505.3895 23.75,505.1239 Q23.1563,504.8427 22.5313,504.8427 Q21.1875,504.8427 20.5,505.9208 Q19.8125,506.9833 19.8125,509.077 Q19.8125,511.1708 20.5,512.2489 Q21.1875,513.3114 22.5313,513.3114 Q23.1563,513.3114 23.75,513.0458 Q24.3438,512.7645 24.9688,512.1864 L24.9688,514.9052 Z " fill="#000000"/><text fill="#D9B8FF" font-family="Helvetica" font-size="17" lengthAdjust="spacing" textLength="243" x="41" y="515.1498">aws_sagemaker_labeling_job</text></g><!--class resource--><g id="elem_resource"><rect codeLine="32" fill="#3D176E" height="39.7891" id="resource" rx="2.5" ry="2.5" style="stroke:#000D19;stroke-width:0.5;" width="113" x="93" y="7"/><ellipse cx="108" cy="26.8945" fill="#ADD1B2" rx="11" ry="11" style="stroke:#181818;stroke-width:1.0;"/><path d="M110.9688,32.5352 Q110.3906,32.832 109.75,32.9727 Q109.1094,33.1289 108.4063,33.1289 Q105.9063,33.1289 104.5781,31.4883 Q103.2656,29.832 103.2656,26.707 Q103.2656,23.582 104.5781,21.9258 Q105.9063,20.2695 108.4063,20.2695 Q109.1094,20.2695 109.75,20.4258 Q110.4063,20.582 110.9688,20.8789 L110.9688,23.5977 Q110.3438,23.0195 109.75,22.7539 Q109.1563,22.4727 108.5313,22.4727 Q107.1875,22.4727 106.5,23.5508 Q105.8125,24.6133 105.8125,26.707 Q105.8125,28.8008 106.5,29.8789 Q107.1875,30.9414 108.5313,30.9414 Q109.1563,30.9414 109.75,30.6758 Q110.3438,30.3945 110.9688,29.8164 L110.9688,32.5352 Z " fill="#000000"/><text fill="#D9B8FF" font-family="Helvetica" font-size="17" lengthAdjust="spacing" textLength="71" x="127" y="32.7798">resource</text></g><!--reverse link resource to aws_resource--><g id="link_resource_aws_resource"><path codeLine="35" d="M149.5,65.05 C149.5,95.57 149.5,136.9 149.5,167.47 " fill="none" id="resource-backto-aws_resource" style="stroke:#FFAF37;stroke-width:2.0;"/><polygon fill="none" points="149.5,47.05,143.5,65.05,155.5,65.05,149.5,47.05" style="stroke:#FFAF37;stroke-width:2.0;"/></g><!--reverse link aws_resource to aws_sagemaker_job--><g id="link_aws_resource_aws_sagemaker_job"><path codeLine="36" d="M149.5,225.84 C149.5,256.36 149.5,297.69 149.5,328.25 " fill="none" id="aws_resource-backto-aws_sagemaker_job" style="stroke:#FFAF37;stroke-width:2.0;"/><polygon fill="none" points="149.5,207.84,143.5,225.84,155.5,225.84,149.5,207.84" style="stroke:#FFAF37;stroke-width:2.0;"/></g><!--reverse link aws_sagemaker_job to aws_sagemaker_labeling_job--><g id="link_aws_sagemaker_job_aws_sagemaker_labeling_job"><path codeLine="37" d="M149.5,386.63 C149.5,417.15 149.5,458.48 149.5,489.04 " fill="none" id="aws_sagemaker_job-backto-aws_sagemaker_labeling_job" style="stroke:#FFAF37;stroke-width:2.0;"/><polygon fill="none" points="149.5,368.63,143.5,386.63,155.5,386.63,149.5,368.63" style="stroke:#FFAF37;stroke-width:2.0;"/></g><!--SRC=[XP3BJiCm44Nt_WfBNKTggQ2DnAP4Gh2f46LVJU9nO-BOqTYXAez_fw5GdAHfbvvxDFUCSoMGOrdv7I-nJ94SSuKo5H2KV45ajudLblX8If3JMJUyjyPV19PG8dz0_OPUPT0bNdAL5GQTurT1T0TPiI5R6t5OxmcCsqTeV40b6fnRU4yghJq6CY9Evr9soUxIqLHCPZVOmom9f5zaF1wBITn5BbQTlVj8hDGxyaduQKlhiQVPg_YXpbesH23PE_Gl7tHy0Y6KsV3hOFPyS2A3r9glSX1ssz0Ij0jhd4T2wtSL9hshC9uBEJi9Fmx1B6k-ZiFMhGcThIb3_i7OLp1tiC4I2gJrgqs7GmqfwhrobsglFRvkFwCeQlMobiH_tkfdVQDJP2Z3lW40]--></g></svg>

<svg xmlns="http://www.w3.org/2000/svg" width="299" height="535" viewBox="0 0 299 535"><rect width="155" height="39.789" x="72" y="167.79" fill="#3D176E" rx="2.5" ry="2.5" style="stroke:#000d19;stroke-width:.5"/><circle cx="87" cy="187.685" r="11" fill="#ADD1B2" style="stroke:#181818;stroke-width:1"/><path d="M89.969 193.325q-.578.297-1.219.438-.64.156-1.344.156-2.5 0-3.828-1.64-1.312-1.657-1.312-4.782t1.312-4.781q1.328-1.656 3.828-1.656.703 0 1.344.156.656.156 1.219.453v2.719q-.625-.578-1.219-.844-.594-.281-1.219-.281-1.344 0-2.031 1.078-.687 1.062-.687 3.156t.687 3.172q.688 1.062 2.031 1.062.625 0 1.219-.265.594-.281 1.219-.86z"/><text x="106" y="193.57" fill="#D9B8FF" font-family="Helvetica" font-size="17" textLength="113">aws_resource</text><rect width="210" height="39.789" x="44.5" y="328.58" fill="#3D176E" rx="2.5" ry="2.5" style="stroke:#000d19;stroke-width:.5"/><circle cx="59.5" cy="348.474" r="11" fill="#ADD1B2" style="stroke:#181818;stroke-width:1"/><path d="M62.469 354.115q-.578.297-1.219.438-.64.156-1.344.156-2.5 0-3.828-1.64-1.312-1.657-1.312-4.782t1.312-4.781q1.328-1.656 3.828-1.656.703 0 1.344.156.656.156 1.219.453v2.719q-.625-.579-1.219-.844-.594-.281-1.219-.281-1.343 0-2.031 1.078-.687 1.062-.687 3.156t.687 3.172q.688 1.062 2.031 1.062.625 0 1.219-.265.594-.281 1.219-.86z"/><text x="78.5" y="354.36" fill="#D9B8FF" font-family="Helvetica" font-size="17" textLength="168">aws_sagemaker_job</text><rect width="285" height="39.789" x="7" y="489.37" fill="#3D176E" rx="2.5" ry="2.5" style="stroke:#000d19;stroke-width:.5"/><circle cx="22" cy="509.264" r="11" fill="#ADD1B2" style="stroke:#181818;stroke-width:1"/><path d="M24.969 514.905q-.578.297-1.219.438-.64.156-1.344.156-2.5 0-3.828-1.64-1.312-1.657-1.312-4.782t1.312-4.781q1.328-1.656 3.828-1.656.703 0 1.344.156.656.156 1.219.453v2.719q-.625-.579-1.219-.844-.594-.281-1.219-.281-1.343 0-2.031 1.078-.687 1.062-.687 3.156t.687 3.172q.688 1.062 2.031 1.062.625 0 1.219-.265.594-.282 1.219-.86z"/><text x="41" y="515.15" fill="#D9B8FF" font-family="Helvetica" font-size="17" textLength="243">aws_sagemaker_labeling_job</text><rect width="113" height="39.789" x="93" y="7" fill="#3D176E" rx="2.5" ry="2.5" style="stroke:#000d19;stroke-width:.5"/><circle cx="108" cy="26.895" r="11" fill="#ADD1B2" style="stroke:#181818;stroke-width:1"/><path d="M110.969 32.535q-.578.297-1.219.438-.64.156-1.344.156-2.5 0-3.828-1.64-1.312-1.657-1.312-4.782t1.312-4.781q1.328-1.656 3.828-1.656.703 0 1.344.156.656.156 1.219.453v2.719q-.625-.578-1.219-.844-.594-.281-1.219-.281-1.344 0-2.031 1.078-.687 1.062-.687 3.156t.687 3.172q.688 1.062 2.031 1.062.625 0 1.219-.265.594-.281 1.219-.86z"/><text x="127" y="32.78" fill="#D9B8FF" font-family="Helvetica" font-size="17" textLength="71">resource</text><path fill="none" d="M149.5 65.05v102.42m0-120.42-6 18h12zm0 178.79v102.41m0-120.41-6 18h12zm0 178.79v102.41m0-120.41-6 18h12z" style="stroke:#ffaf37;stroke-width:2"/></svg>
